putStrLn "Hello, World!"

d01 $
  id $
  slow 4 $
  stack[silence
  ,note "[~!3 16]" #ch 8 #vel 0.2 -- vl1
  ,note "[~ 7]" #ch 8 #vel 0.2 -- vl2
  ,note "[~ -2@3]" #ch 8 #vel 0.25 -- vla
  ,note "[-14]" #ch 8 #vel 0.3 -- clo
  ,note ("[-10 -7 -3 2 -3 -7] [-2 5 -2 -7 -2 5] [7 2 -2 2 7 2] [4 7 10 7 4 7]" ) #ch 15
  ]